icon/lg/ebanx.svg

<?xml version="1.0" encoding="UTF-8"?>
<svg viewBox="0 0 512 94" version="1.1" xmlns="http://www.w3.org/2000/svg" preserveAspectRatio="xMidYMid" height="1em" width="1em">
  <g>
    <path d="M355.586382,0 C362.252295,0 369.354455,2.28898476 376.148447,6.3615491 L377.277798,7.05673779 L425.650126,37.8487107 L480.891792,0.931138016 L508.893279,0.931138016 L439.989065,46.9785482 L512,92.8180628 L481.231452,92.8180628 L423.623876,56.1640197 L368.833138,92.8180628 L340.784801,92.8180628 L409.252727,47.0166136 L366.26226,19.6622383 C363.045637,17.6043647 359.956549,15.8857351 356.166527,15.6657306 L355.343349,15.6419474 C348.789744,15.6419474 343.153513,19.8972398 342.836793,28.5017725 L342.822764,29.2722854 L342.822764,68.4972063 C342.822764,85.1669193 335.154052,93.699423 321.225047,93.699423 C313.036805,93.699423 306.065606,90.0537393 299.442425,82.8883937 L298.707904,82.0777664 L241.826498,18.2391783 C239.934941,16.2304969 238.479672,15.5921696 236.877997,15.5921696 C234.198082,15.5921696 232.091837,17.2813089 231.897319,20.8745871 L231.882647,21.4278868 L231.882647,72.567275 C231.882647,86.6866068 224.600445,93.699423 212.469298,93.699423 C205.768325,93.699423 200.008566,90.9080525 195.823995,85.7093043 L195.287166,85.0175858 L185.346243,71.6829867 L139.137787,71.6829867 L139.137787,92.8209909 L122.784309,92.8209909 L122.784309,21.6709197 C122.784309,7.59843758 130.403244,0 142.387986,0 C147.601905,0 153.452025,1.79068519 159.495164,9.50399772 L160.100105,10.2952241 L209.219099,76.1483498 C210.235152,77.4718541 211.350761,78.0633318 212.469298,78.0633318 C214.05438,78.0633318 215.34358,76.9512237 215.508428,74.7698595 L215.526241,74.2860738 L215.526241,23.3867903 C215.526241,7.74777104 225.086511,0 236.491487,0 C244.051071,0 250.66855,3.76300729 255.781658,9.19614842 L256.387974,9.85600805 L313.895995,74.4793288 C316.323396,77.1263375 318.557541,78.1570312 320.595504,78.1570312 C323.796816,78.1570312 326.245322,75.8691446 326.452184,71.8930068 L326.466358,71.3403982 L326.466358,30.8915285 C326.466358,9.90578587 338.210995,0 355.586382,0 Z M141.85507,15.6360912 C140.534677,15.6360912 139.301784,16.5419743 139.15283,18.7976747 L139.137787,19.2669438 L139.137787,56.9751054 L174.380482,56.9751054 L144.912014,17.4515175 C144.0505,16.3193162 143.265333,15.7655063 142.248039,15.6564152 L141.85507,15.6360912 Z M80.3179741,0.934066123 C98.3726817,0.934066123 107.930023,10.7373682 107.930023,24.3208565 C107.930023,32.5878785 103.390247,39.5935891 95.9931779,43.9210996 L95.7637384,44.0504412 L96.0534388,44.1694827 C105.978843,48.3923984 110.940117,55.677954 110.940117,65.2118703 C110.940117,80.3618957 100.167611,92.8180628 80.8538177,92.8180628 L47.2684308,92.8180628 L47.2684308,0.934066123 L80.3179741,0.934066123 Z M76.6314874,53.297403 L63.671686,53.297403 L63.671686,77.1761153 L76.6314874,77.1761153 C89.1520728,77.1761153 94.1005736,71.5365813 94.1005736,64.6233208 C94.1005736,57.7100602 89.0525172,53.297403 76.6314874,53.297403 Z M77.0179976,16.5233076 L63.671686,16.5233076 L63.671686,38.5865936 L75.5129506,38.5865936 C85.898946,38.5865936 91.8693561,33.9777532 91.8693561,27.1142705 C91.8693561,20.7895595 87.403993,16.5233076 77.0179976,16.5233076 Z M34.5516622,0.931138016 L34.5516622,16.5233076 L16.3564055,16.5233076 L16.3564055,38.5865936 L32.7567326,38.5865936 L32.7567326,53.297403 L16.3564055,53.297403 L16.3564055,77.1761153 L34.5516622,77.1761153 L34.5516622,92.8151347 L0,92.8151347 L0,0.931138016 L34.5516622,0.931138016 Z" fill="#0051FF"/>
  </g>
</svg>

<svg width="512" height="94" xmlns="http://www.w3.org/2000/svg" preserveAspectRatio="xMidYMid"><path d="M355.586 0c6.666 0 13.768 2.289 20.562 6.362l1.13.695 48.372 30.792L480.892.93h28.001L439.99 46.98 512 92.819h-30.769l-57.607-36.655-54.79 36.654h-28.05l68.469-45.801-42.99-27.355c-3.217-2.058-6.306-3.776-10.096-3.996l-.824-.024c-6.553 0-12.19 4.255-12.506 12.86l-.014.77v39.225c0 16.67-7.669 25.202-21.598 25.202-8.188 0-15.16-3.645-21.783-10.81l-.734-.811-56.882-63.839c-1.891-2.009-3.346-2.647-4.948-2.647-2.68 0-4.786 1.69-4.98 5.283l-.015.553v51.14c0 14.119-7.283 21.131-19.414 21.131-6.7 0-12.46-2.79-16.645-7.99l-.537-.691-9.94-13.335h-46.21v21.138h-16.353v-71.15C122.784 7.598 130.404 0 142.388 0c5.214 0 11.064 1.79 17.107 9.504l.605.791 49.12 65.853c1.015 1.324 2.13 1.915 3.25 1.915 1.584 0 2.874-1.112 3.038-3.293l.018-.484v-50.9C215.526 7.749 225.086 0 236.491 0c7.56 0 14.178 3.763 19.29 9.196l.607.66 57.508 64.623c2.427 2.647 4.662 3.678 6.7 3.678 3.2 0 5.65-2.288 5.856-6.264l.014-.553V30.892C326.466 9.906 338.211 0 355.586 0Zm-213.73 15.636c-1.321 0-2.554.906-2.703 3.162l-.015.469v37.708h35.242l-29.468-39.523c-.862-1.133-1.647-1.686-2.664-1.796l-.393-.02ZM80.317.934c18.055 0 27.612 9.803 27.612 23.387 0 8.267-4.54 15.273-11.937 19.6l-.23.13.29.118c9.926 4.223 14.887 11.509 14.887 21.043 0 15.15-10.772 27.606-30.086 27.606H47.268V.934h33.05Zm-3.687 52.363h-12.96v23.88h12.96c12.521 0 17.47-5.64 17.47-12.554 0-6.913-5.048-11.326-17.47-11.326Zm.387-36.774H63.672v22.064h11.841c10.386 0 16.356-4.61 16.356-11.473 0-6.324-4.465-10.59-14.851-10.59ZM34.552.931v15.592H16.356v22.064h16.4v14.71h-16.4v23.88h18.196v15.638H0V.931h34.552Z" fill="#0051FF"/></svg>
